dist/svg/vault-fill.svg

<svg xmlns="http://www.w3.org/2000/svg" viewBox="0 0 24 24"><path d="M4.701 4.285a2 2 0 0 0-.46.144c-.265.132-.676.526-.798.766-.204.399-.202.333-.202 5.805s-.002 5.406.202 5.805c.113.223.529.639.752.752.2.103.628.201.875.202l.17.001v.65c0 .358.019.717.042.799.108.39.52.618.92.51.22-.059.454-.287.513-.5.025-.087.045-.451.045-.809v-.65h10.48v.65c0 .358.02.722.045.809.059.213.293.441.513.5.4.108.812-.12.92-.51.023-.082.042-.441.042-.799v-.65l.17-.001c.247-.001.675-.099.875-.202.223-.113.639-.529.752-.752.204-.399.202-.333.202-5.805s.002-5.406-.202-5.805c-.122-.24-.533-.634-.797-.765a2 2 0 0 0-.5-.148c-.35-.05-14.214-.048-14.559.003m10.926 4.039c.832.176 1.647.883 1.939 1.683l.085.233H20v1.52h-2.349l-.085.233c-.186.51-.673 1.082-1.171 1.378a3.5 3.5 0 0 1-.575.257c-.277.091-.387.105-.82.105s-.543-.014-.82-.105a2.7 2.7 0 0 1-1.116-.692 2.7 2.7 0 0 1-.692-1.116c-.091-.277-.105-.387-.105-.82s.014-.543.105-.82c.146-.441.357-.781.693-1.116a2.6 2.6 0 0 1 1.002-.651c.441-.16 1.059-.195 1.56-.089M14.586 9.82a1.4 1.4 0 0 0-.607.478c-.571.804.027 1.942 1.021 1.942.474 0 .913-.277 1.127-.711.133-.27.133-.787 0-1.057a1.4 1.4 0 0 0-.599-.599c-.234-.114-.71-.141-.942-.053"/></svg>

<svg fill="none" xmlns="http://www.w3.org/2000/svg" viewBox="0 0 24 24"><path d="M4.701 4.285 C 4.570 4.304,4.363 4.369,4.241 4.429 C 3.976 4.561,3.565 4.955,3.443 5.195 C 3.239 5.594,3.241 5.528,3.241 11.000 C 3.241 16.472,3.239 16.406,3.443 16.805 C 3.556 17.028,3.972 17.444,4.195 17.557 C 4.395 17.660,4.823 17.758,5.070 17.759 L 5.240 17.760 5.240 18.410 C 5.240 18.768,5.259 19.127,5.282 19.209 C 5.390 19.599,5.802 19.827,6.202 19.719 C 6.422 19.660,6.656 19.432,6.715 19.219 C 6.740 19.132,6.760 18.768,6.760 18.410 L 6.760 17.760 12.000 17.760 L 17.240 17.760 17.240 18.410 C 17.240 18.768,17.260 19.132,17.285 19.219 C 17.344 19.432,17.578 19.660,17.798 19.719 C 18.198 19.827,18.610 19.599,18.718 19.209 C 18.741 19.127,18.760 18.768,18.760 18.410 L 18.760 17.760 18.930 17.759 C 19.177 17.758,19.605 17.660,19.805 17.557 C 20.028 17.444,20.444 17.028,20.557 16.805 C 20.761 16.406,20.759 16.472,20.759 11.000 C 20.759 5.528,20.761 5.594,20.557 5.195 C 20.435 4.955,20.024 4.561,19.760 4.430 C 19.639 4.371,19.414 4.304,19.260 4.282 C 18.910 4.232,5.046 4.234,4.701 4.285 M15.627 8.324 C 16.459 8.500,17.274 9.207,17.566 10.007 L 17.651 10.240 18.825 10.240 L 20.000 10.240 20.000 11.000 L 20.000 11.760 18.825 11.760 L 17.651 11.760 17.566 11.993 C 17.380 12.503,16.893 13.075,16.395 13.371 C 16.255 13.454,15.996 13.570,15.820 13.628 C 15.543 13.719,15.433 13.733,15.000 13.733 C 14.567 13.733,14.457 13.719,14.180 13.628 C 13.740 13.482,13.399 13.271,13.064 12.936 C 12.729 12.601,12.518 12.260,12.372 11.820 C 12.281 11.543,12.267 11.433,12.267 11.000 C 12.267 10.567,12.281 10.457,12.372 10.180 C 12.518 9.739,12.729 9.399,13.065 9.064 C 13.386 8.744,13.677 8.555,14.067 8.413 C 14.508 8.253,15.126 8.218,15.627 8.324 M14.586 9.820 C 14.363 9.905,14.126 10.091,13.979 10.298 C 13.408 11.102,14.006 12.240,15.000 12.240 C 15.474 12.240,15.913 11.963,16.127 11.529 C 16.260 11.259,16.260 10.742,16.127 10.472 C 16.009 10.232,15.767 9.990,15.528 9.873 C 15.294 9.759,14.818 9.732,14.586 9.820 " stroke="none" fill-rule="evenodd"/></svg>
